X: 1383
T: Jerry Hayes   #2
R: reel
O: F.O'Neill
%S: s:2 b:9(4+5)
B: O'Neill's 1850 #1383
Z: Bob Safranek, rjs@gsp.org
N: Compacted via adding a repeat with multiple endings [JC]
M: C|
L: 1/8
K: D
"^A"|:\
A2 | d2 (fe) ceAc | dAfd egce | d2 (fd) ceAg | fdec d2 "^B":: (AG) | FDAF 
dABG | FDAF EcAG | FDAF [1 dABG | FDEC A2 :|[2 dAAg | fdec d2 |]
